fill/svg/grid.svg

<svg xmlns="http://www.w3.org/2000/svg" viewBox="0 0 24 24"><g data-name="Layer 2"><g data-name="grid"><path d="M9 3H5a2 2 0 0 0-2 2v4a2 2 0 0 0 2 2h4a2 2 0 0 0 2-2V5a2 2 0 0 0-2-2z"/><path d="M19 3h-4a2 2 0 0 0-2 2v4a2 2 0 0 0 2 2h4a2 2 0 0 0 2-2V5a2 2 0 0 0-2-2z"/><path d="M9 13H5a2 2 0 0 0-2 2v4a2 2 0 0 0 2 2h4a2 2 0 0 0 2-2v-4a2 2 0 0 0-2-2z"/><path d="M19 13h-4a2 2 0 0 0-2 2v4a2 2 0 0 0 2 2h4a2 2 0 0 0 2-2v-4a2 2 0 0 0-2-2z"/></g></g></svg>

<svg xmlns="http://www.w3.org/2000/svg" viewBox="0 0 24 24"><defs><style>.cls-1{fill:#fff;opacity:0;}.cls-2{fill:#231f20;}</style></defs><title>grid</title><g id="Layer_2" data-name="Layer 2"><g id="grid"><g id="grid-2" data-name="grid"><rect class="cls-1" width="24" height="24"/><path class="cls-2" d="M9,3H5A2,2,0,0,0,3,5V9a2,2,0,0,0,2,2H9a2,2,0,0,0,2-2V5A2,2,0,0,0,9,3Z"/><path class="cls-2" d="M19,3H15a2,2,0,0,0-2,2V9a2,2,0,0,0,2,2h4a2,2,0,0,0,2-2V5A2,2,0,0,0,19,3Z"/><path class="cls-2" d="M9,13H5a2,2,0,0,0-2,2v4a2,2,0,0,0,2,2H9a2,2,0,0,0,2-2V15A2,2,0,0,0,9,13Z"/><path class="cls-2" d="M19,13H15a2,2,0,0,0-2,2v4a2,2,0,0,0,2,2h4a2,2,0,0,0,2-2V15A2,2,0,0,0,19,13Z"/></g></g></g></svg>
